build/Karasa-Jaga/scalable/actions/go-last-rtl-symbolic.svg

<svg height="16" width="16" xmlns="http://www.w3.org/2000/svg"><g fill="#bebebe"><path d="m11.009766 2.1894531-7.8593754 5.7324219c-.0012.00522-.00251.010425-.00391.015625l7.8750034 5.748047 1.029297-1.054688-2.349609-2.349609c-.5916122-.591707-2.1726705-1.603328-1.3359376-1.6035156h6.9160156v-1.4902344h-6.8886719c-.8367306-.0001911.744327-1.0118102 1.3359379-1.6035156l2.33789-2.3378906z"/><path d="m1.15625 2.1875h1.3125v11.625h-1.3125z" stroke-width="1.145644"/></g></svg>

<?xml version="1.0" encoding="UTF-8" standalone="no"?>
<!-- Created with Inkscape (http://www.inkscape.org/) -->

<svg
   xmlns:dc="http://purl.org/dc/elements/1.1/"
   xmlns:cc="http://creativecommons.org/ns#"
   xmlns:rdf="http://www.w3.org/1999/02/22-rdf-syntax-ns#"
   xmlns:svg="http://www.w3.org/2000/svg"
   xmlns="http://www.w3.org/2000/svg"
   xmlns:sodipodi="http://sodipodi.sourceforge.net/DTD/sodipodi-0.dtd"
   xmlns:inkscape="http://www.inkscape.org/namespaces/inkscape"
   width="16px"
   height="16px"
   id="svg13294"
   version="1.1"
   inkscape:version="0.92.2 (unknown)"
   sodipodi:docname="go-last-rtl-symbolic.svg">
  <defs
     id="defs13296" />
  <sodipodi:namedview
     id="base"
     pagecolor="#ffffff"
     bordercolor="#666666"
     borderopacity="1.0"
     inkscape:pageopacity="0.0"
     inkscape:pageshadow="2"
     inkscape:zoom="32"
     inkscape:cx="-4.0386461"
     inkscape:cy="7.3311575"
     inkscape:current-layer="layer1"
     showgrid="true"
     inkscape:grid-bbox="true"
     inkscape:document-units="px"
     inkscape:window-width="1366"
     inkscape:window-height="706"
     inkscape:window-x="0"
     inkscape:window-y="0"
     inkscape:window-maximized="1" />
  <metadata
     id="metadata13299">
    <rdf:RDF>
      <cc:Work
         rdf:about="">
        <dc:format>image/svg+xml</dc:format>
        <dc:type
           rdf:resource="http://purl.org/dc/dcmitype/StillImage" />
        <dc:title></dc:title>
      </cc:Work>
    </rdf:RDF>
  </metadata>
  <g
     id="layer1"
     inkscape:label="Layer 1"
     inkscape:groupmode="layer">
    <path
       style="color:#000000;display:inline;overflow:visible;visibility:visible;fill:#bebebe;fill-opacity:1;fill-rule:nonzero;stroke:none;stroke-width:1;marker:none;enable-background:accumulate"
       d="M 11.009766,2.1894531 3.1503906,7.921875 c -0.0012,0.00522 -0.00251,0.010425 -0.00391,0.015625 L 11.021484,13.685547 12.050781,12.630859 9.701172,10.28125 C 9.1095598,9.689543 7.5285015,8.677922 8.3652344,8.6777344 H 15.28125 V 7.1875 H 8.3925781 C 7.5558475,7.1873089 9.1369051,6.1756898 9.728516,5.5839844 l 2.33789,-2.3378906 z"
       id="path29297"
       inkscape:connector-curvature="0" />
    <rect
       id="rect93"
       width="1.3125"
       height="11.625"
       x="1.15625"
       y="2.1875"
       style="fill:#bebebe;fill-opacity:1;stroke-width:1.14564395" />
  </g>
</svg>
